X:54
T:Favourite, The
M:6/8
L:1/8
B:Thompson's Compleat Collection of 200 Favourite Country Dances, vol. 3 (London, 1773)
Z:Transcribed and edited by Flynn Titford-Mock, 2007
Z:abc's:AK/Fiddler's Companion
K:A
F/e/ | c>AA B>AA | c>AA B>AA | fec ABc | B>BB B2f/e/ | c>AA B>AA | c>AA B>AA | fga efe | e>cA A2 :|
|: A | A>BA e>fe | fga ecA | A>BA ef=g | (f/=g/a)f e2A | A>BA e>fe | fga ecA | Ace fga | fbg a2 :|

